X:3397
T:Cooley's
R:Reel
S:Niall Keegan
H:
N:
D:Rare Live 'Pub' Album
Z:Adrian Scahill
M:4/4
L:1/8
K:G
B2BA BAGA|B3A BAGA|(3Bcd e^c dBGA|BAGB AGED|\
G2(3Bcd g2dg|egdB A3c|Bdd2 dBAB|G2FA G4:||
afd^c (3dcd ga|baga adfa|g3a gedB|BAGB A3B|\
Gd (3Bcd g2dg|egdB A3c|Bdd2 dBAB|G2FA G4:||


